/* XPM */
static char * maximize_toggled_active_xpm[] = {
"24 16 4 1",
" 	c None",
".	c #C0C0C0 s active_color_2",
"+	c #FFFFFF s active_text_color",
"@	c #4BFF4E s active_text_color",
"........................",
"........................",
"..++++............++++..",
"..++................++..",
"..++....@@@@@@@.....++..",
"..++....@@@@@@@.....++..",
"..++.....@@@@@......++..",
"..++.....@@@@@......++..",
"..++......@@@.......++..",
"..++......@@@.......++..",
"..++.......@........++..",
"..++++............++++..",
"........................",
"........................",
"........................",
"........................"}