/* XPM */
static char * shade_toggled_pressed_xpm[] = {
"24 16 4 1",
" 	c None",
".	c #C0C0C0 s active_text_color",
"+	c #FFFFFF s active_color_1",
"@	c #FFFF4E",
"........................",
"........................",
"..++++............++++..",
"..++.......@........++..",
"..++.......@........++..",
"..++.......@........++..",
"..++.......@........++..",
"..++.......@........++..",
"..++.......@........++..",
"..++.....@@@@@......++..",
"..++......@@@.......++..",
"..++++.....@......++++..",
"........................",
"........................",
"........................",
"........................"}