/* XPM */
static char * stick_toggled_prelight_xpm[] = {
"24 16 4 1",
" 	c None",
".	c #C0C0C0 s active_color_1",
"+	c #FFFFFF s active_text_color",
"@	c #FEFEFE s active_text_color",
"........................",
"........................",
"..++++...@@@@@....++++..",
"..++....@@...@@.....++..",
"..++....@@...@@.....++..",
"..++....@@...@@.....++..",
"..++....@@...@@.....++..",
"..++....@@...@@.....++..",
"..++....@@...@@.....++..",
"..++....@@...@@.....++..",
"..++....@@...@@.....++..",
"..++++...@@@@@....++++..",
"........................",
"........................",
"........................",
"........................"}